X: 28911
T: Na Ceannabháin Bhána
R: slip jig
M: 9/8
K: Gmajor
|:B2 G AGE GED|EGD DEG A3|B2G AGE GED|EGD DEF G2 A:|
|:Bdd edd BAG|Bdd edB A3|B2d edd BAG|GED DEF G3:|

